!!!!SEGMENT: pl-wtm--r-1664--001-009_stefani-jozef--okropnosc-czyli-nowa-lafarge-no-7-presto.krn
!!!cenid: 18xx:2064
!!!COM: Stefani, Józef
!!!COM-rismID: pe30024097
!!!CDT: 1800/04/16-1876/03/19
!!!CNT: Polish
!!!OPR: Okropność czyli Nowa Lafarge
!!!OTL: No. 7 - Presto
!!!OMV: 009
!!!PDT:
!!!AGN: Secular
!!!YEC: Copyright 2022 Narodowy Instytut Fryderyka Chopina (https://polishscores.org)
!!!YEM: License CC-BY-4.0 (https://creativecommons.org/licenses/by/4.0)
!!!SMS-siglum: PL-Wtm
!!!SMS-shelfmark: R 1664
!!!SMS-shelfwork: 001-009 M
!!!SMS-variant:
!!!SMS-altvar:
!!!NIFC-rismSourceID: 1001114328
!!!NIFC-rismChildID: 1001114328
!!!NIFC-islandoraID: pl-wtm:27523
!!!URL-pdf-islandora: https://repozytorium.nifc.pl/islandora/object/pl-wtm%3A27523/datastream/PDF/view
!!!URL-scan: https://polish.musicsources.pl/pl/lokalizacje/galeria/rekopisy/6406 @EN{Scan on Polish Music Sources Website} @PL{Skany w portalu Dziedzictwo Muzyki Polskiej w otwartym dostępie}
!!!IIIF:
!!!ONB-nifc: UWAGA: skany 0039-0041. Nast. cz.: Moderato
!!!AIN: 1 cbass 1 cello 1 clars 1 cor 1 fagot 1 flt 1 oboe 1 timpa 1 tromp 1 tromt 1 viola 2 violn 1 vox
!!!key:
**kern	**kern	**dynam	**kern	**dynam	**kern	**text	**kern	**kern	**dynam	**kern	**kern	**kern	**kern	**dynam	**kern	**kern	**dynam	**kern	**kern	**dynam
*part14	*part13	*	*part12	*	*part11	*	*part10	*part9	*	*part8	*part7	*part6	*part5	*	*part4	*part3	*	*part2	*part1	*
*staff14	*staff13	*	*staff12	*	*staff11	*	*staff10	*staff9	*	*staff8	*staff7	*staff6	*staff5	*	*staff4	*staff3	*	*staff2	*staff1	*
*Icbass	*Icello	*	*Iviola	*	*Ivox	*	*Ivioln	*Ivioln	*	*Itimpa	*Itromt	*Itromp	*Ifagot	*	*Icor	*Iclars	*	*Ioboe	*Iflt	*
*I"[C:Baſsi]	*I"[Violoncelli]	*	*I"[Viole]	*	*I"[Voce]	*	*I"[Violino IIº]	*I"[Violino Iº]	*	*I"[Timpani in d. a.]	*I"[Trombone]	*I"[Trombe in C]	*I"[Fagot]	*	*I"[Corni in B.]	*I"[Clarinetti in B]	*	*I"[Oboe]	*I"[Flauto]	*
*I'cb	*I'vlc	*	*I'Vla	*	*I'V	*	*I'vn II	*I'vn I	*	*I'timp	*I'trb	*I'tr in C	*I'fag	*	*I'cor in B|b	*I'cl in B	*	*I'ob	*I'fl	*
*clefF4	*clefF4	*	*clefC3	*	*clefG2	*	*clefG2	*clefG2	*	*clefF4	*clefF4	*clefG2	*clefF4	*	*clefG2	*clefG2	*	*clefG2	*clefG2	*
*ITrd0c0	*	*	*	*	*	*	*	*	*	*	*	*	*	*	*ITrd1c2	*ITrd1c2	*	*	*	*
*k[b-e-]	*k[b-e-]	*	*k[b-e-]	*	*k[b-e-]	*	*k[b-e-]	*k[b-e-]	*	*k[b-e-]	*k[b-e-]	*k[b-e-]	*k[b-e-]	*	*k[b-e-]	*k[b-e-]	*	*k[b-e-]	*k[b-e-]	*
*e-:	*e-:	*	*e-:	*	*e-:	*	*e-:	*e-:	*	*e-:	*e-:	*e-:	*e-:	*	*e-:	*e-:	*	*e-:	*e-:	*
*M2/4	*M2/4	*	*M2/4	*	*M2/4	*	*M2/4	*M2/4	*	*M2/4	*M2/4	*M2/4	*M2/4	*	*M2/4	*M2/4	*	*M2/4	*M2/4	*
=1	=1	=1	=1	=1	=1	=1	=1	=1	=1	=1	=1	=1	=1	=1	=1	=1	=1	=1	=1	=1
*	*	*	*tremolo	*	*	*	*tremolo	*	*	*	*	*	*	*	*	*	*	*	*	*
*	*	*	*2\right	*	*	*	*	*	*	*	*	*	*	*	*	*	*	*	*	*
!	!	!	!	!	!	!	!	!	!	!	!	!	!LO:TX:t=P:all\right:problem	!	!	!	!	!	!LO:TX:i:a:t=Presto	!
!LO:TX:t=P:problem=instrument występuje w partyturze, ale nie został wpisany w tę część	!LO:TX:t=P:all\right:problem	!	!LO:TX:t=P:all\right:problem	!	!LO:TX:t=P:all\right:problem	!	!	!LO:TX:t=P:all\right:problem	!	!LO:TX:t=P:problem=instrument występuje w partyturze, ale nie został wpisany w tę część	!LO:TX:t=P:problem=instrument występuje w partyturze, ale nie został wpisany w tę część	!LO:TX:t=P:problem=instrument występuje w partyturze, ale nie został wpisany w tę część	!LO:TX:a:t=col b&colon;	!	!	!	!	!LO:TX:t=P:all\right:problem	!LO:TX:t=P:all\right:problem	!
.	.	.	.	.	.	.	.	(>8qb-/	p	.	.	.	.	.	.	.	.	.	.	.
*	*	*	*	*	*	*	*	*	*	*	*	*	*	*	*	*^	*	*	*	*
!	!	!	!	!	!	!	!	!	!	!	!	!	!	!	!	!	!	!LO:DY:a:rj	!	!	!LO:DY:rj
2ryy	4B-\	p	8d\L 8B-\	p	4b-\	Niech	8b-/L 8f/	4bb-\)	.	2ryy	2ryy	2ryy	4B-\yy	p	2r	4b-/	2r	p	4b-\	4bb-\	p
.	.	.	8d\ 8B-\	.	.	.	8b-/ 8f/	.	.	.	.	.	.	.	.	.	.	.	.	.	.
.	4B-\	.	8d\ 8B-\	.	8b-\	da-	8b-/ 8f/	8bb-'\L	.	.	.	.	4B-\yy	.	.	8b-/L	.	.	8b-\L	8bb-\L	.
.	.	.	8d\J 8B-\	.	8b-\	-ją	8b-/J 8f/	8bb-'\J	.	.	.	.	.	.	.	8b-/J	.	.	8b-\J	8bb-\J	.
=2	=2	=2	=2	=2	=2	=2	=2	=2	=2	=2	=2	=2	=2	=2	=2	=2	=2	=2	=2	=2	=2
*	*rep	*	*rep	*	*	*	*rep	*	*	*	*	*	*rep	*	*	*	*	*	*	*	*
2ryy	4B-\	.	8d\L 8B-\	.	(8dd\L	wi-	8b-/L 8f/	(8ddd\L	.	2ryy	2ryy	2ryy	4B-\yy	.	2r	(8dd/L	2r	.	(8dd\L	(8ddd\L	.
.	.	.	8d\ 8B-\	.	8b-\J)	.	8b-/ 8f/	8bb-\J)	.	.	.	.	.	.	.	8b-/J	.	.	8b-\J)	8bb-\J)	.
.	4B-\	.	8d\ 8B-\	.	4b-\	-na	8b-/ 8f/	4bb-\	.	.	.	.	4B-\yy	.	.	4b-/)	.	.	4b-\	4bb-'\	.
.	.	.	8d\J 8B-\	.	.	.	8b-/J 8f/	.	.	.	.	.	.	.	.	.	.	.	.	.	.
*	*Xrep	*	*Xrep	*	*	*	*Xrep	*	*	*	*	*	*Xrep	*	*	*	*	*	*	*	*
=3	=3	=3	=3	=3	=3	=3	=3	=3	=3	=3	=3	=3	=3	=3	=3	=3	=3	=3	=3	=3	=3
*	*rep	*	*rep	*	*	*	*rep	*	*	*	*	*	*rep	*	*	*	*	*	*	*	*
2ryy	4B-\	.	8d\L 8B-\	.	4f/	na	8b-/L 8f/	4ff\	.	2ryy	2ryy	2ryy	4B-\yy	.	2r	4f/	2r	.	4ff\	4ff\	.
.	.	.	8d\ 8B-\	.	.	.	8b-/ 8f/	.	.	.	.	.	.	.	.	.	.	.	.	.	.
.	4B-\	.	8d\ 8B-\	.	8f/	wszy-	8b-/ 8f/	8ff\L	.	.	.	.	4B-\yy	.	.	8f/L	.	.	8ff\L	8ff\L	.
.	.	.	8d\J 8B-\	.	8f/	-stkie	8b-/J 8f/	8ff\J	.	.	.	.	.	.	.	8f/J	.	.	8ff\J	8ff\J	.
*	*Xrep	*	*Xrep	*	*	*	*Xrep	*	*	*	*	*	*Xrep	*	*	*	*	*	*	*	*
=4	=4	=4	=4	=4	=4	=4	=4	=4	=4	=4	=4	=4	=4	=4	=4	=4	=4	=4	=4	=4	=4
*	*rep	*	*rep	*	*	*	*rep	*	*	*	*	*	*rep	*	*	*	*	*	*	*	*
2ryy	4B-\	.	8d\L 8B-\	.	(8b-/L	sto-	8b-/L 8f/	(8bb-\L	.	2ryy	2ryy	2ryy	4B-\yy	.	2r	(8b-/L	2r	.	(8bb-\L	(8bb-\L	.
.	.	.	8d\ 8B-\	.	8f/J)	.	8b-/ 8f/	8ff\J)	.	.	.	.	.	.	.	8f/J)	.	.	8ff\J)	8ff\J)	.
.	4B-\	.	8d\ 8B-\	.	4f/	-ły	8b-/ 8f/	4ff\	.	.	.	.	4B-\yy	.	.	4f/	.	.	4ff\	4ff\	.
.	.	.	8d\J 8B-\	.	.	.	8b-/J 8f/	.	.	.	.	.	.	.	.	.	.	.	.	.	.
*	*Xrep	*	*Xrep	*	*	*	*Xrep	*	*	*	*	*	*Xrep	*	*	*	*	*	*	*	*
!!LO:PB:g=original
=5	=5	=5	=5	=5	=5	=5	=5	=5	=5	=5	=5	=5	=5	=5	=5	=5	=5	=5	=5	=5	=5
!	!	!	!LO:TX:a:t=Viole	!	!LO:TX:t=P:problem=od tego takty głos jest pod altówką	!	!	!	!	!	!	!	!	!	!	!	!	!	!LO:TX:a:t=col Fl.	!	!
2ryy	4B-\	.	8d\L 8B-\	.	4d/	A	8b-/L 8f/	(8dd\L	.	2ryy	2ryy	2ryy	4B-\yy	.	2r	8d/L	2rd	.	8dd\Lyy	8dd\L	.
.	.	.	.	.	.	.	.	8qee-/	.	.	.	.	.	.	.	8qd/	.	.	8qee-/yy	8qee-/	.
.	.	.	8d\ 8B-\	.	.	.	8b-/ 8f/	16dd\L	.	.	.	.	.	.	.	16d/L	.	.	16dd\Lyy	16dd\L	.
.	.	.	.	.	.	.	.	16cc\JJ	.	.	.	.	.	.	.	16c/JJ	.	.	16cc\JJyy	16cc\JJ	.
.	4B-\	.	8d\ 8B-\	.	8d/	tak	8b-/ 8f/	8dd\L)	.	.	.	.	4B-\yy	.	.	16d/LL	.	.	8dd\Lyy	8dd\L	.
.	.	.	.	.	.	.	.	.	.	.	.	.	.	.	.	16e-/JJ	.	.	.	.	.
.	.	.	8d\J 8B-\	.	8e-/	we-	8b-/J 8f/	8ee-'\J	.	.	.	.	.	.	.	8r	.	.	8ee-\Jyy	8ee-\J	.
=6	=6	=6	=6	=6	=6	=6	=6	=6	=6	=6	=6	=6	=6	=6	=6	=6	=6	=6	=6	=6	=6
*	*	*	*rep	*	*	*	*	*	*	*	*	*	*	*	*	*	*	*	*	*	*
2ryy	4B-\	.	8d\L 8B-\	.	4f/	-so-	8b-/L 8f/	(8gg\L	.	2ryy	2ryy	2ryy	4B-\yy	.	2ryy	(8g/L	2r	.	(8gg\Lyy	(8gg\L	.
.	.	.	8d\ 8B-\	.	.	.	8b-/ 8f/	8ff\)	.	.	.	.	.	.	.	8f/)	.	.	8ff\)yy	8ff\)	.
.	4B-\	.	8d\ 8B-\	.	4f/	-ły	8b-/ 8f/	8ff'\	.	.	.	.	4B-\yy	.	.	8f'/	.	.	8ff'\yy	8ff'\	.
.	.	.	8d\J 8B-\	.	.	.	8b-/J 8f/	8ff'\J	.	.	.	.	.	.	.	8f'/J	.	.	8ff'\Jyy	8ff'\J	.
*	*	*	*Xrep	*	*	*	*	*	*	*	*	*	*	*	*	*	*	*	*	*	*
=7	=7	=7	=7	=7	=7	=7	=7	=7	=7	=7	=7	=7	=7	=7	=7	=7	=7	=7	=7	=7	=7
2ryy	4F\	.	8e-\L 8c\	.	4f/	niech	8a/L 8f/	(16ffT\LL	.	2ryy	2ryy	2ryy	4F\yy	.	2ryy	16fT/LL	2r	.	(16ffT\LLyy	(16ffT\LL	.
.	.	.	.	.	.	.	.	16een\J)	.	.	.	.	.	.	.	16eX/J	.	.	16een\Jyy	16een\J	.
!	!	!	!	!	!	!	!	!	!	!	!	!	!	!	!	!	!	!	!LO:N:vis=16	!LO:N:vis=16	!
.	.	.	8e-\ 8c\	.	.	.	8a/ 8f/	8ff\J	.	.	.	.	.	.	.	8f/J	.	.	8ff\J)yy	8ff\J)	.
.	4F\	.	8e-\ 8c\	.	8g/	zni-	8a/ 8f/	8gg\L	.	.	.	.	4F\yy	.	.	8g/L	.	.	8gg\Lyy	8gg\L	.
.	.	.	8e-\J 8c\	.	8a/	-ka	8a/J 8f/	8aa\J	.	.	.	.	.	.	.	8a/J	.	.	8aa\Jyy	8aa\J	.
=8	=8	=8	=8	=8	=8	=8	=8	=8	=8	=8	=8	=8	=8	=8	=8	=8	=8	=8	=8	=8	=8
2ryy	4BB-/	.	8d\L 8B-\	.	4b-/	czas	8b-/L 8f/	4bb-\	.	2ryy	2ryy	2ryy	4BB-/yy	.	2ryy	4b-/	2r	.	4bb-\yy	4bb-\	.
.	.	.	8d\ 8B-\	.	.	.	8b-/ 8f/	.	.	.	.	.	.	.	.	.	.	.	.	.	.
.	4r	.	8d\ 8B-\	.	4r	.	8b-/ 8f/	4r	.	.	.	.	4ryy	.	.	4r	.	.	4r	4r	.
.	.	.	8d\J 8B-\	.	.	.	8b-/J 8f/	.	.	.	.	.	.	.	.	.	.	.	.	.	.
*	*	*	*	*	*	*	*	*	*	*	*	*	*	*	*	*v	*v	*	*	*	*
*	*	*	*Xtremolo	*	*	*	*Xtremolo	*	*	*	*	*	*	*	*	*	*	*	*	*
=9	=9	=9	=9	=9	=9	=9	=9	=9	=9	=9	=9	=9	=9	=9	=9	=9	=9	=9	=9	=9
2ryy	2ryy	.	2ryy	.	4b-\	Wdzię-	2ryy	2ryy	.	2ryy	2ryy	2ryy	2ryy	.	2ryy	2ryy	.	2ryy	2ryy	.
.	.	.	.	.	8b-\	-czne	.	.	.	.	.	.	.	.	.	.	.	.	.	.
.	.	.	.	.	8b-\	dzie-	.	.	.	.	.	.	.	.	.	.	.	.	.	.
=10	=10	=10	=10	=10	=10	=10	=10	=10	=10	=10	=10	=10	=10	=10	=10	=10	=10	=10	=10	=10
2ryy	2ryy	.	2ryy	.	(8dd\L	-wczę-	2ryy	2ryy	.	2ryy	2ryy	2ryy	2ryy	.	2ryy	2ryy	.	2ryy	2ryy	.
.	.	.	.	.	8b-\J)	.	.	.	.	.	.	.	.	.	.	.	.	.	.	.
.	.	.	.	.	4b-\	-ta	.	.	.	.	.	.	.	.	.	.	.	.	.	.
!!LO:PB:g=original
=11	=11	=11	=11	=11	=11	=11	=11	=11	=11	=11	=11	=11	=11	=11	=11	=11	=11	=11	=11	=11
2ryy	2ryy	.	2ryy	.	4f/	do	2ryy	2ryy	.	2ryy	2ryy	2ryy	2ryy	.	2ryy	2ryy	.	2ryy	2ryy	.
.	.	.	.	.	8f/	mnie	.	.	.	.	.	.	.	.	.	.	.	.	.	.
.	.	.	.	.	8f/	spro-	.	.	.	.	.	.	.	.	.	.	.	.	.	.
=12	=12	=12	=12	=12	=12	=12	=12	=12	=12	=12	=12	=12	=12	=12	=12	=12	=12	=12	=12	=12
2ryy	2ryy	.	2ryy	.	(8b-/L	-wa-	2ryy	2ryy	.	2ryy	2ryy	2ryy	2ryy	.	2ryy	2ryy	.	2ryy	2ryy	.
.	.	.	.	.	8f/J)	.	.	.	.	.	.	.	.	.	.	.	.	.	.	.
.	.	.	.	.	4f/	-dzisz	.	.	.	.	.	.	.	.	.	.	.	.	.	.
=13	=13	=13	=13	=13	=13	=13	=13	=13	=13	=13	=13	=13	=13	=13	=13	=13	=13	=13	=13	=13
2ryy	2ryy	.	2ryy	.	4d/	Wszy-	2ryy	2ryy	.	2ryy	2ryy	2ryy	2ryy	.	2ryy	2ryy	.	2ryy	2ryy	.
.	.	.	.	.	8d/	-stkie	.	.	.	.	.	.	.	.	.	.	.	.	.	.
.	.	.	.	.	8e-/	zgro-	.	.	.	.	.	.	.	.	.	.	.	.	.	.
=14	=14	=14	=14	=14	=14	=14	=14	=14	=14	=14	=14	=14	=14	=14	=14	=14	=14	=14	=14	=14
2ryy	2ryy	.	2ryy	.	4f/	-ma-	2ryy	2ryy	.	2ryy	2ryy	2ryy	2ryy	.	2ryy	2ryy	.	2ryy	2ryy	.
.	.	.	.	.	4f/	-dzisz	.	.	.	.	.	.	.	.	.	.	.	.	.	.
=15	=15	=15	=15	=15	=15	=15	=15	=15	=15	=15	=15	=15	=15	=15	=15	=15	=15	=15	=15	=15
2ryy	2ryy	.	2ryy	.	4f/	na	2ryy	2ryy	.	2ryy	2ryy	2ryy	2ryy	.	2ryy	2ryy	.	2ryy	2ryy	.
.	.	.	.	.	8a/	je-	.	.	.	.	.	.	.	.	.	.	.	.	.	.
.	.	.	.	.	8g/	-den	.	.	.	.	.	.	.	.	.	.	.	.	.	.
=16	=16	=16	=16	=16	=16	=16	=16	=16	=16	=16	=16	=16	=16	=16	=16	=16	=16	=16	=16	=16
*	*	*	*	*	*	*	*	*	*	*	*	*	*	*	*	*^	*	*	*	*
*	*	*	*	*	*	*	*	*	*	*	*	*	*tremolo	*	*tremolo	*tremolo	*	*	*	*	*
*	*	*	*	*	*	*	*	*	*	*	*	*	*2\right	*	*	*	*2\right	*	*	*	*
!	!	!	!	!	!	!	!LO:TX:t=P:all\right:problem	!	!	!	!	!	!	!	!	!LO:TX:t=P:all\right:problem	!	!	!	!	!
2ryy	4BB-/	.	8d\ 8B-\	.	4b-/	raz,	8b-\	(4.bb-\	.	2ryy	2ryy	2ryy	8B-\L	.	8f/L 8B-/	4.b-/	8d\L	.	(4.b-\	(4.bb-\	.
.	.	.	8f\L	.	.	.	8d/L 8B-/	.	.	.	.	.	8B-\	.	8f/ 8B-/	.	8d\	.	.	.	.
.	4B-\	.	8f\	.	4r	.	8d/ 8B-/	.	.	.	.	.	8B-\	.	8f/ 8B-/	.	8d\	.	.	.	.
.	.	.	8f\J	.	.	.	8d/J 8B-/	8ddd\)	.	.	.	.	8B-\J	.	8f/J 8B-/	8dd/	8d\J	.	8dd\)	8ddd\)	.
!!LO:PB:g=original
=17	=17	=17	=17	=17	=17	=17	=17	=17	=17	=17	=17	=17	=17	=17	=17	=17	=17	=17	=17	=17	=17
*	*	*	*tremolo	*	*	*	*tremolo	*	*	*	*	*	*	*	*	*	*	*	*	*	*
!	!	!	!	!	!	!	!	!	!	!	!	!	!	!	!	!	!	!	!LO:TX:a:t=8va col. Fl.	!	!
2ryy	4F\	.	8f\L	.	2r	.	8e-/L 8c/	(8ddd\L	.	2ryy	2ryy	2ryy	8c\L	.	8f/L 8F/	(8dd/L	8e-\L	.	(8dd\Lyy	(8ddd\L	.
.	.	.	8f\	.	.	.	8e-/ 8c/	8ccc\	.	.	.	.	8c\	.	8f/ 8F/	8cc/	8e-\	.	8cc\yy	8ccc\	.
.	4FF/	.	8f\	.	.	.	8e-/ 8c/	8bb-\	.	.	.	.	8c\	.	8f/ 8F/	8b-/	8e-\	.	8b-\yy	8bb-\	.
.	.	.	8f\J	.	.	.	8e-/J 8c/	8aa\J)	.	.	.	.	8c\J	.	8f/J 8F/	8a/J)	8e-\J	.	8a\J)yy	8aa\J)	.
=18	=18	=18	=18	=18	=18	=18	=18	=18	=18	=18	=18	=18	=18	=18	=18	=18	=18	=18	=18	=18	=18
*	*	*	*rep	*	*	*	*	*	*	*	*	*	*	*	*	*	*	*	*	*	*
2ryy	4BB-/	.	8f\L	.	2r	.	8d/L 8B-/	(8bb-\L	.	2ryy	2ryy	2ryy	8B-\L	.	8f/L 8B-/	(8b-/L	8d\L	.	(8b-\L<yy	(8bb-\L	.
.	.	.	8f\	.	.	.	8d/ 8B-/	8ff\	.	.	.	.	8B-\	.	8f/ 8B-/	8f/	8d\	.	8f/yy	8ff\	.
.	4B-\	.	8f\	.	.	.	8d/ 8B-/	8bb-\	.	.	.	.	8B-\	.	8f/ 8B-/	8b-/	8d\	.	8b-/yy	8bb-\	.
.	.	.	8f\J	.	.	.	8d/J 8B-/	8ddd\J)	.	.	.	.	8B-\J	.	8f/J 8B-/	8dd/J)	8d\J	.	8dd/J)yy	8ddd\J)	.
*	*	*	*Xrep	*	*	*	*	*	*	*	*	*	*	*	*	*	*	*	*	*	*
=19	=19	=19	=19	=19	=19	=19	=19	=19	=19	=19	=19	=19	=19	=19	=19	=19	=19	=19	=19	=19	=19
*	*	*	*rep	*	*	*	*	*	*	*	*	*	*	*	*	*	*	*	*	*	*
2ryy	4F\	.	8f\L	.	2r	.	8e-/L 8c/	(8ddd\L	.	2ryy	2ryy	2ryy	8c\L	.	8f/L 8F/	(8dd/L	8e-\L	.	(8dd\Lyy	(8ddd\L	.
.	.	.	8f\	.	.	.	8e-/ 8c/	8ccc\	.	.	.	.	8c\	.	8f/ 8F/	8cc/	8e-\	.	8cc\yy	8ccc\	.
.	4FF/	.	8f\	.	.	.	8e-/ 8c/	8bb-\	.	.	.	.	8c\	.	8f/ 8F/	8b-/	8e-\	.	8b-\yy	8bb-\	.
.	.	.	8f\J	.	.	.	8e-/J 8c/	8aa\J)	.	.	.	.	8c\J	.	8f/J 8F/	8a/J)	8e-\J	.	8a\J)yy	8aa\J)	.
*	*	*	*Xrep	*	*	*	*	*	*	*	*	*	*Xtremolo	*	*	*	*	*	*	*	*
*	*	*	*	*	*	*	*	*	*	*	*	*	*	*	*	*v	*v	*	*	*	*
=20	=20	=20	=20	=20	=20	=20	=20	=20	=20	=20	=20	=20	=20	=20	=20	=20	=20	=20	=20	=20
2ryy	4BB-/	.	4f\ 4B-\	.	2r	.	4d/ 4B-/	4bb-\	.	2ryy	2ryy	2ryy	4B-\	.	4f/ 4B-/	4b-/ 4d/	.	4b-\	4bb-\	.
.	4r	.	4r	.	.	.	4r	4r	.	.	.	.	4r	.	4r	4r	.	4r	4r	.
=21	=21	=21	=21	=21	=21	=21	=21	=21	=21	=21	=21	=21	=21	=21	=21	=21	=21	=21	=21	=21
2ryy	4BB-/	.	4f\ 4B-\	.	2r	.	4bb-\ 4b-\ 4d\	4bb-\ 4b-\ 4d\	.	2ryy	2ryy	2ryy	4B-\	.	4f/ 4B-/	4dd/ 4f/	.	4bb-\	4ddd\	.
.	4r	.	4r	.	.	.	4r	4r	.	.	.	.	4r	.	4r	4r	.	4r	4r	.
=22	=22	=22	=22	=22	=22	=22	=22	=22	=22	=22	=22	=22	=22	=22	=22	=22	=22	=22	=22	=22
2ryy	4BB-/	.	4B-/	.	2r	.	4B-/	4B-/	.	2ryy	2ryy	2ryy	4BB-/	.	4f/ 4B-/	4b-/ 4d/	.	4bb-\	4bb-\	.
.	4r	.	4r	.	.	.	4r	4r	.	.	.	.	4r	.	4r	4r	.	4r	4r	.
==	==	==	==	==	==	==	==	==	==	==	==	==	==	==	==	==	==	==	==	==
*-	*-	*-	*-	*-	*-	*-	*-	*-	*-	*-	*-	*-	*-	*-	*-	*-	*-	*-	*-	*-
!!!system-decoration: ({s1,s2},s3,s4,s5,s6,s7,s8[(s9,s10)]s11,s12,s13,s14)
!!!RDF**kern: > = above
!!!RDF**kern: < = below
!!!EED: Leszek Kubiak
!!!EEV: 2021-05-10
!!!ENC: Anastazja Marusiak
!!!END: 2021-04-28
